X:1
T:Title
%%score ( 1 2 ) { 3 | 4 }
L:1/8
Q:1/4=93
M:3/4
K:C
V:1 treble nm="Grand Piano, Soprano"
V:2 treble 
V:3 bass nm="Choir Pad, Salerno, D. W. Whittle 1891"
V:4 bass 
V:1
 G>G c3 [Ec] | [GB]>[FA] [EG]4 | [FA]>[EG] [DF]3 [CE] | [DF]>[B,G] [CE]4 | E>E A3 [EA] | %5
w: By~Daniel~Webster~Whittle,~1891 * * *|||||
 [Ec]>[Ac] [^GB]4 | [^Ge]>[Gd] [Ac]3 [^Fd] | [^Fc]>[FA] G4 |[M:4/4] z2 d6 | z2 e6 | z2 c6 | z2 G6 | %12
w: |||||||
 [EG]>[EG] [FA]2 [GB]2 [Gc]2 | [Gd]2 [Ge]4 [Af]2 | [Ac]>[FA] [EG]2 .[Ec]2 [Ec]2- | %15
w: |||
 [Ec]2 [FB]2- [FB][Ec] [Ec]2- | [Ec]6 z2 |] %17
w: ||
V:2
 x6 | x6 | x6 | x6 | x6 | x6 | x6 | x6 |[M:4/4] G>B z2 G>G G>[DB] | [DA]>[DG] G>G G>G G2 | %10
 e>d z2 E>E F>[Fd] | [Fc]>[FA] E>E F>F E2 | x8 | x8 | x8 | x8 | x8 |] %17
V:3
 G,>G, C3 G, | G,>[K:treble]C C4 | C>C B,3[K:bass] G, | G,>G, G,4 | E,>E, A,3 C | A,>A, B,4 | %6
 B,>B, C3 A, | A,>C B,4 |[M:4/4] z4 B,>B, B,>D | C>B, C4 z2 | z4 C>C A,>A, | %11
 A,>[K:treble]C C>C D>D C2 | C>C C2 D2 C2 | B,2 C_B, A,G,[K:treble] C2 | C>C C2 .C2 C2- | %15
 C2[K:bass] D2- DG, G,2- | G,6 z2 |] %17
V:4
 z2 z2 z C, | C,>C, C,4 | C,>C, G,,3 G,, | G,,>G,, C,4 | z2 z2 z A,, | A,,>A,, E,4 | E,>E, A,3 D, | %7
 D,>D, G,4 |[M:4/4] z4 G,>G, G,>G, | G,>F, C,>C, E,>G, C2 | z4 A,>A, F,>F, | %11
 F,>F, C,>C, B,,>B,, C,2 | C,>C, F,2 F,2 E,2 | G,2 z2 z2 F,2 | F,>F, G,2 .G,2 G,2- | G,2 G,4 C,2- | %16
 C,6 z2 |] %17

